X: 2014
T: Yâr Saçları Lüle Lüle
C: Yesârî Âsım Arsoy
O: Turkey
F: http://compmusic.upf.edu/node/140
N: hicaz--sarki--nimsofyan--yar_saclari--yesari_asim_arsoy
N: makam= hicaz
N: form= sarki
N: usul= nimsofyan = 2/4
M: 2/4
L: 1/16
K: C _7/8B ^f ^c 
Q: 1/4=114
%%MIDI tuningsystem comma53
e=fga gfed  | =f2e2 z2a2  | g=fed cBAG  | \
w:  ARANAĞME  |   |   | 
ABcd ede2  | 
w:   | 
e=fga gfed  | =f2e2 z2a2  | g=fed cBAG  | \
w:   |   |   | 
.A3.A3.A2  | 
w:   | 
e=fga gfed  | =f2e2 z2a2  | g=fed cBAG  | \
w:  ARANAĞME  |   |   | 
ABcd ede2  | 
w:   | 
e=fga gfed  | =f2e2 z2a2  | g=fed cBAG  | \
w:   |   |   | 
Aa2g fga2  | 
w:   | 
a4 a4  | .a2.a6  | a2{a}_1/4b2 g2f2  | g2a2 dfa2  | \
w:  Yâr  saç  |  la rı   |  lü *  le   |  lü le   SAZ  | 
g4 a4  | {a}_1/4b2b2 g2f2  | g2{a}g2 =f2e2  | 
w:  Yâr  ben  |  *  zi yor   |  be *  yaz   | 
e2e2 .c.BA2  | a4 a4  | .a2.a6  | a2{a}_1/4b2 g2f2  | \
w:  gü le   SAZ  |  Yâr  saç  |  la rı   |  lü *  le   | 
g2a2 dfa2  | g4 a4  | {a}_1/4b2b2 g2f2  | 
w:  lü le   SAZ  |  Yâr  ben  |  *  zi yor   | 
g2{a}g2 =f2e2  | e2e2 gfg2  | f2g4g2  | \
w:  be *  yaz   |  gü le   SAZ  |  O  gül  be  | 
g4 =f2e2  | e2=f2 e2f2  | {g}a4 g2=fe  | 
w:  nim   |  ha ya  |  *  tım dır    | 
d4 a2a2  | g2=f2 {f}e2d2  | c3B B2BA  | \
w:  *  Ö lü  |  rüm  *  *  de   |  ver *  mem_ e  | 
ABcd efg2  | f2g4g2  | 
w:  le   SAZ  |  O  gül  be  | 
g4 =f2e2  | e2=f2 e2f2  | {g}a4 g2=fe  | \
w:  nim   |  ha ya  |  *  tım dır    | 
d4 a2a2  | g2=f2 {f}e2d2  | c3B B2BA  | 
w:  *  Ö lü  |  rüm  *  *  de   |  ver *  mem_ e  | 
A2.d2 .d2.d2  | d4 d2d2  | d8  | e4 {g}=fedc  | .d8  | \
w:  le   SAZ  |  Yâr  yâr  a  |  man   |  yâr  *  yâr  *  a  |  man    | 
d4 d2d2  | d8  | e4 =fedc  | 
w:  Yâr  yü re  |  ğim   |  ol du  *  ke  | 
d2e2 f2g2  | f2g4g2  | g4 f2e2  | e4 .a2.a2  | \
w:  man    |  Ka vuş ma  |  mız   |  yâr  ne  za  | 
g2f2 {g}e2d2  | e4 =feed  | 
w:  man   |  yâr  ne  *  za  | 
{d}e4 d2c2  | c3B B2BA  | ABcd efg2  | f2g4g2  | \
w:  *  man   |  yâr  *  ne  za  |  man   SAZ  |  Ka vuş ma  | 
g4 f2e2  | 
w:  mız   | 
e4 .a2.a2  | g2f2 {g}e2d2  | e4 =feed  | \
w:  yâr  ne  za  |  man   |  yâr  ne  *  za  | 
{d}e4 d2c2  | c3B B2BA  | A8  | 
w:  *  man   |  yâr  *  ne  za  |  man    | 
e=fga gfed  | =f2e2 z2a2  | g=fed cBAG  | \
w:  ARANAĞME  |   |   | 
ABcd ede2  | 
w:   | 
e=fga gfed  | =f2e2 z2a2  | g=fed cBAG  | \
w:   |   |   | 
.A3.A3.A2  | 
w:   | 
e=fga gfed  | =f2e2 z2a2  | g=fed cBAG  | \
w:  ARANAĞME  |   |   | 
ABcd ede2  | 
w:   | 
e=fga gfed  | =f2e2 z2a2  | g=fed cBAG  | \
w:   |   |   | 
Aa2g fga2  | 
w:   | 
a4 a4  | .a2.a6  | a2{a}_1/4b2 g2f2  | g2a2 dfa2  | \
w:  Yâr  saç  |  la rı   |  lü *  le   |  lü le   SAZ  | 
g4 a4  | {a}_1/4b2b2 g2f2  | g2{a}g2 =f2e2  | 
w:  Yâr  ben  |  *  zi yor   |  be *  yaz   | 
e2e2 .c.BA2  | a4 a4  | .a2.a6  | a2{a}_1/4b2 g2f2  | \
w:  gü le   SAZ  |  Yâr  saç  |  la rı   |  lü *  le   | 
g2a2 dfa2  | g4 a4  | {a}_1/4b2b2 g2f2  | 
w:  lü le   SAZ  |  Yâr  ben  |  *  zi yor   | 
g2{a}g2 =f2e2  | e2e2 gfg2  | f2g4g2  | \
w:  be *  yaz   |  gü le   SAZ  |  O  gül  be  | 
g4 =f2e2  | e2=f2 e2f2  | {g}a4 g2=fe  | 
w:  nim   |  ha ya  |  *  tım dır    | 
d4 a2a2  | g2=f2 {f}e2d2  | c3B B2BA  | \
w:  *  Ö lü  |  rüm  *  *  de   |  ver *  mem_ e  | 
ABcd efg2  | f2g4g2  | 
w:  le   SAZ  |  O  gül  be  | 
g4 =f2e2  | e2=f2 e2f2  | {g}a4 g2=fe  | \
w:  nim   |  ha ya  |  *  tım dır    | 
d4 a2a2  | g2=f2 {f}e2d2  | c3B B2BA  | 
w:  *  Ö lü  |  rüm  *  *  de   |  ver *  mem_ e  | 
A2.d2 .d2.d2  | d4 d2d2  | d8  | e4 {g}=fedc  | .d8  | \
w:  le   SAZ  |  Yâr  yâr  a  |  man   |  yâr  *  yâr  *  a  |  man    | 
d4 d2d2  | d8  | e4 =fedc  | 
w:  Yâr  yü re  |  ğim   |  ol du  *  ke  | 
d2e2 f2g2  | f2g4g2  | g4 f2e2  | e4 .a2.a2  | \
w:  man    |  Ka vuş ma  |  mız   |  yâr  ne  za  | 
g2f2 {g}e2d2  | e4 =feed  | 
w:  man   |  yâr  ne  *  za  | 
{d}e4 d2c2  | c3B B2BA  | ABcd efg2  | f2g4g2  | \
w:  *  man   |  yâr  *  ne  za  |  man   SAZ  |  Ka vuş ma  | 
g4 f2e2  | 
w:  mız   | 
e4 .a2.a2  | g2f2 {g}e2d2  | e4 =feed  | \
w:  yâr  ne  za  |  man   |  yâr  ne  *  za  | 
{d}e4 d2c2  | c3B B2BA  | A8  | 
w:  *  man   |  yâr  *  ne  za  |  man    | 
|


